packages/tokens/icons/thumbsUp/size24Px.svg

<svg viewBox="0 0 24 24" fill="none" xmlns="http://www.w3.org/2000/svg" width="1em" height="1em"><path d="M2.5 9C2.5 8.72386 2.72386 8.5 3 8.5H6C6.82843 8.5 7.5 9.17157 7.5 10L7.5 17C7.5 17.8284 6.82843 18.5 6 18.5H3C2.72386 18.5 2.5 18.2761 2.5 18L2.5 9Z" stroke="currentColor"/><circle cx="5.5" cy="16.5" r="0.25" stroke="currentColor" stroke-width="0.5"/><path d="M16 18.5002L11.28 18.4998C11.0942 18.4998 10.9094 18.4739 10.7308 18.4229L7.5 17.5" stroke="currentColor"/><path d="M13.5 8.00049C13.2239 8.00049 13 8.22435 13 8.50049C13 8.77663 13.2239 9.00049 13.5 9.00049V8.00049ZM13.5 9.00049L20.25 9.00049V8.00049L13.5 8.00049V9.00049ZM20.25 10.5005H18.4V11.5005H20.25V10.5005ZM21 9.75049C21 10.1647 20.6642 10.5005 20.25 10.5005V11.5005C21.2165 11.5005 22 10.717 22 9.75049H21ZM20.25 9.00049C20.6642 9.00049 21 9.33627 21 9.75049H22C22 8.78399 21.2165 8.00049 20.25 8.00049V9.00049Z" fill="currentColor"/><path d="M17 11.0005H19.75C20.4404 11.0005 21 11.5601 21 12.2505V12.2505C21 12.9408 20.4404 13.5005 19.75 13.5005H16.5" stroke="currentColor" stroke-linecap="round"/><path d="M17 13.5005H19.25C19.9404 13.5005 20.5 14.0601 20.5 14.7505V14.7505C20.5 15.4408 19.9404 16.0005 19.25 16.0005H17" stroke="currentColor" stroke-linecap="round"/><path d="M16 16.0005H18.25C18.9404 16.0005 19.5 16.5601 19.5 17.2505V17.2505C19.5 17.9408 18.9404 18.5005 18.25 18.5005H14.6667" stroke="currentColor" stroke-linecap="round"/><path d="M13.5 8.50037L14.3404 5.32473C14.4464 4.92444 14.5 4.51213 14.5 4.09807L14.5 3.74988C14.5 3.05948 13.9402 2.49984 13.2498 2.49995V2.49995C12.5596 2.50006 12.0049 3.0632 11.8811 3.74226C11.3788 6.49612 9.3715 9.49998 7.50005 9.50027" stroke="currentColor"/></svg>

<svg xmlns="http://www.w3.org/2000/svg" fill="none" viewBox="0 0 24 24" width="1em" height="1em"><path stroke="currentColor" d="M2.5 9a.5.5 0 0 1 .5-.5h3A1.5 1.5 0 0 1 7.5 10v7A1.5 1.5 0 0 1 6 18.5H3a.5.5 0 0 1-.5-.5V9Z"/><circle cx="5.5" cy="16.5" r=".25" stroke="currentColor" stroke-width=".5"/><path stroke="currentColor" d="M16 18.5h-4.72a2 2 0 0 1-.55-.077L7.5 17.5"/><path fill="currentColor" d="M13.5 8a.5.5 0 0 0 0 1V8Zm0 1h6.75V8H13.5v1Zm6.75 1.5H18.4v1h1.85v-1Zm.75-.75a.75.75 0 0 1-.75.75v1A1.75 1.75 0 0 0 22 9.75h-1ZM20.25 9a.75.75 0 0 1 .75.75h1A1.75 1.75 0 0 0 20.25 8v1Z"/><path stroke="currentColor" stroke-linecap="round" d="M17 11h2.75c.69 0 1.25.56 1.25 1.25v0c0 .69-.56 1.25-1.25 1.25H16.5m.5 0h2.25c.69 0 1.25.56 1.25 1.25v0c0 .69-.56 1.25-1.25 1.25H17m-1 0h2.25c.69 0 1.25.56 1.25 1.25v0c0 .69-.56 1.25-1.25 1.25h-3.583"/><path stroke="currentColor" d="m13.5 8.5.84-3.175c.106-.4.16-.813.16-1.227V3.75c0-.69-.56-1.25-1.25-1.25s-1.245.563-1.369 1.242C11.38 6.496 9.371 9.5 7.5 9.5"/></svg>
